X:256
T:Twilight Waltz
R:waltz
C:Bruce Osborne - Jan. 2003
Z:abc by bosborne@kos.net
M:3/4
L:1/8
K:Cmaj
(3G,A,B,|C3 B, CD|E2 G2 cB|A3 F ED|A,4 BA|\
G3 c eg|a2 g2 ec|d3 c BA|G3 F ED|\
C3 B, CD|E2 G2 cB|A3 F ED|A,4 BA|\
G3 c eg|a2 g2 e2|d3 c Bd|c4||\
ga|g2 e2 cd|c2 G2 ED|CB, CD EA|G4 DE|\
FE FG BA|G3 G ^FG|Bc BA GD|E4 ga|\
g2 e2 cd|c2 G2 ED|CB, CD EA|G4 DE|\
FE FG BA|G3 G ^FG|Bc BA GB,|C4||
